img/flying/img-8.svg

<svg width="123" height="155" viewBox="0 0 123 155" fill="none" xmlns="http://www.w3.org/2000/svg">
<g clip-path="url(#clip0_245_17)">
<path d="M72.309 6.89279C74.5966 8.27386 74.7106 11.3917 72.5561 13.8608L56.6389 32.1366C54.4973 34.5983 50.9108 35.4738 48.6232 34.0927C46.3357 32.7116 46.235 29.5874 48.3762 27.1247L64.2932 8.8489C66.4348 6.38729 70.0349 5.50526 72.309 6.89279Z" fill="white"/>
<g filter="url(#filter0_d_245_17)">
<path d="M71.927 138.532C73.0534 140.748 75.2699 141.769 78.145 141.783C79.1992 141.783 80.2282 141.747 81.2515 141.666C87.3498 141.175 93.4644 138.678 98.3134 134.666C98.3324 134.652 98.3515 134.639 98.3704 134.625C99.2497 133.892 100.15 132.834 100.382 131.887C101.383 127.685 104.858 125.896 108.747 124.441C109.774 124.057 110.841 123.828 111.82 123.395C116.049 121.521 117.961 118.485 117.017 114.759C116.587 113.146 115.828 111.553 114.797 110.258C112.764 107.737 109.537 107.721 106.128 108.886C104.166 109.558 103.074 109.255 102.314 107.817C101.719 106.705 102.268 107.613 101.634 106.524C100.838 105.124 101.427 103.234 102.975 102.062C105.786 99.9279 106.857 97.5943 105.876 94.7334C104.778 91.5865 102.7 89.5299 98.6175 89.6162C97.5867 89.638 94.9605 89.4662 93.9014 89.592C90.7647 89.9632 92.6896 92.2819 92.846 89.4184C92.9645 87.0749 92.8345 84.7288 92.5079 82.4628C92.0584 79.5486 90.1445 77.4808 87.5405 76.0069C86.6053 75.475 86.0724 74.527 86.0628 73.4646C86.0042 70.2073 84.0032 68.2686 80.676 68.1123C76.7463 67.9314 73.0559 69.8147 71.543 72.905C71.0171 73.9823 70.295 74.4867 69.1386 74.9886C67.4727 75.7132 65.8609 76.7034 64.3615 77.7652C63.4706 78.4059 62.8151 78.7809 61.9233 78.2654C58.888 76.4861 54.1714 77.7732 51.7653 82.3069C50.1112 85.4242 49.6486 88.3171 52.607 90.4711C53.1521 90.8604 53.5482 91.7085 53.4866 92.3691C52.7352 98.7169 55.927 103.054 60.7132 106.426C62.3685 107.589 61.2311 105.122 60.7378 107.279C59.6037 112.229 60.5073 116.781 63.6437 120.349C66.7988 123.901 67.0857 126.181 68.4684 130.597C69.3522 133.348 70.6116 135.965 71.927 138.532Z" fill="#91D7E1"/>
</g>
<path d="M20.4914 57.6277C21.6196 63.2162 17.8411 68.9196 12.4282 69.8254C7.55526 70.6404 3.05886 67.6451 2.07344 62.9387C0.94867 57.5489 4.80674 52.3839 10.8018 51.2712C15.9574 50.315 19.4812 52.6276 20.4914 57.6277Z" fill="#FEE927"/>
</g>
<defs>
<filter id="filter0_d_245_17" x="20.4535" y="48.1003" width="186.8" height="193.683" filterUnits="userSpaceOnUse" color-interpolation-filters="sRGB">
<feFlood flood-opacity="0" result="BackgroundImageFix"/>
<feColorMatrix in="SourceAlpha" type="matrix" values="0 0 0 0 0 0 0 0 0 0 0 0 0 0 0 0 0 0 127 0" result="hardAlpha"/>
<feOffset dx="30" dy="40"/>
<feGaussianBlur stdDeviation="30"/>
<feComposite in2="hardAlpha" operator="out"/>
<feColorMatrix type="matrix" values="0 0 0 0 0.882353 0 0 0 0 0.784314 0 0 0 0 0.827451 0 0 0 0.3 0"/>
<feBlend mode="normal" in2="BackgroundImageFix" result="effect1_dropShadow_245_17"/>
<feBlend mode="normal" in="SourceGraphic" in2="effect1_dropShadow_245_17" result="shape"/>
</filter>
<clipPath id="clip0_245_17">
<rect width="123" height="155" fill="white"/>
</clipPath>
</defs>
</svg>

<svg width="123" height="155" fill="none" xmlns="http://www.w3.org/2000/svg"><g clip-path="url(#clip0_245_17)"><path d="M72.309 6.893c2.288 1.38 2.402 4.499.247 6.968L56.64 32.137c-2.142 2.461-5.728 3.337-8.016 1.956-2.287-1.381-2.388-4.506-.247-6.968L64.293 8.849c2.142-2.462 5.742-3.344 8.016-1.956z" fill="#fff"/><g filter="url(#filter0_d_245_17)"><path d="M71.927 138.532c1.126 2.216 3.343 3.237 6.218 3.251 1.054 0 2.083-.036 3.106-.117 6.099-.491 12.213-2.988 17.062-7l.057-.041c.88-.733 1.78-1.791 2.012-2.738 1.001-4.202 4.476-5.991 8.365-7.446 1.027-.384 2.094-.613 3.073-1.046 4.229-1.874 6.141-4.91 5.197-8.636-.43-1.613-1.189-3.206-2.22-4.501-2.033-2.521-5.26-2.537-8.669-1.372-1.962.672-3.054.369-3.814-1.069-.595-1.112-.046-.204-.68-1.293-.796-1.4-.207-3.29 1.341-4.462 2.811-2.134 3.882-4.468 2.901-7.329-1.098-3.147-3.176-5.203-7.258-5.117-1.031.022-3.657-.15-4.717-.024-3.136.371-1.211 2.69-1.055-.174a36.138 36.138 0 00-.338-6.955c-.45-2.914-2.364-4.982-4.968-6.456-.935-.532-1.468-1.48-1.477-2.542-.059-3.258-2.06-5.196-5.387-5.353-3.93-.18-7.62 1.703-9.133 4.793-.526 1.077-1.248 1.582-2.404 2.084-1.666.724-3.278 1.714-4.777 2.776-.891.64-1.547 1.016-2.439.5-3.035-1.779-7.752-.492-10.158 4.042-1.654 3.117-2.116 6.01.842 8.164.545.39.941 1.237.88 1.898-.752 6.348 2.44 10.685 7.226 14.057 1.655 1.163.518-1.304.025.853-1.134 4.95-.23 9.502 2.906 13.07 3.155 3.552 3.442 5.832 4.824 10.248.884 2.751 2.144 5.368 3.459 7.935z" fill="#91D7E1"/></g><path d="M20.491 57.628c1.129 5.588-2.65 11.292-8.063 12.197-4.873.815-9.37-2.18-10.355-6.886-1.124-5.39 2.734-10.555 8.729-11.668 5.155-.956 8.68 1.357 9.69 6.357z" fill="#FEE927"/></g><defs><clipPath id="clip0_245_17"><path fill="#fff" d="M0 0h123v155H0z"/></clipPath><filter id="filter0_d_245_17" x="20.453" y="48.1" width="186.8" height="193.683" filterUnits="userSpaceOnUse" color-interpolation-filters="sRGB"><feFlood flood-opacity="0" result="BackgroundImageFix"/><feColorMatrix in="SourceAlpha" values="0 0 0 0 0 0 0 0 0 0 0 0 0 0 0 0 0 0 127 0" result="hardAlpha"/><feOffset dx="30" dy="40"/><feGaussianBlur stdDeviation="30"/><feComposite in2="hardAlpha" operator="out"/><feColorMatrix values="0 0 0 0 0.882353 0 0 0 0 0.784314 0 0 0 0 0.827451 0 0 0 0.3 0"/><feBlend in2="BackgroundImageFix" result="effect1_dropShadow_245_17"/><feBlend in="SourceGraphic" in2="effect1_dropShadow_245_17" result="shape"/></filter></defs></svg>
